Fylo-Dark-Theme-Landing-Page/images/bg-curvy-mobile.svg

<svg width="375" height="141" xmlns="http://www.w3.org/2000/svg" xmlns:xlink="http://www.w3.org/1999/xlink"><defs><path id="a" d="M0 0h375v141H0z"/></defs><g fill="none" fill-rule="evenodd"><mask id="b" fill="#fff"><use xlink:href="#a"/></mask><path d="M0 128.937c22.708-1.669 44.049-15.69 64.024-42.063 29.962-39.56 23.473-54.118 73.218-40.562 49.746 13.556 45.508 4.677 77.494-26.648 31.985-31.325 52.746-24.157 72.245 13.912 19.499 38.07 55.147 47.264 88.395 61.244 22.165 9.32 22.165 1296.047 0 3860.18H0V128.937z" fill="#181F2B" mask="url(#b)"/></g></svg>

<svg width="375" height="334" viewBox="0 0 375 334" fill="none" xmlns="http://www.w3.org/2000/svg">
<rect y="141" width="375" height="193" fill="#181F2B"/>
<mask id="mask0_2:12" style="mask-type:alpha" maskUnits="userSpaceOnUse" x="0" y="0" width="375" height="141">
<path d="M0 0H375V141H0V0Z" fill="white"/>
</mask>
<g mask="url(#mask0_2:12)">
<path fill-rule="evenodd" clip-rule="evenodd" d="M0 128.937C22.708 127.268 44.049 113.247 64.024 86.874C93.986 47.314 87.497 32.756 137.242 46.312C186.988 59.868 182.75 50.989 214.736 19.664C246.721 -11.661 267.482 -4.493 286.981 33.576C306.48 71.646 342.128 80.84 375.376 94.82C397.541 104.14 397.541 1390.87 375.376 3955H0V128.937Z" fill="#181F2B"/>
</g>
</svg>
